X:1
T:Rabat, CMD
T:Rabat, CMD
T:Philip Paul Bliss (1838-1876)
T:Public Domain Courtesy of the Cyber Hymnal™
C:Philip Paul Bliss (1838-1876)
Z:Public Domain
Z:Courtesy of the Cyber Hymnal™
%%score ( 1 2 ) ( 3 4 )
L:1/8
Q:1/4=110
M:4/4
K:C
V:1 treble 
V:2 treble 
V:3 bass 
V:4 bass 
V:1
 [EG]2 | [Ec]2 [Ec]2 [Ec]2 ([CE][DF]) | [EG]3 [DF] [CE]2 [EG]2 | [FA]2 [FA]2 (A^G) (Ac) | %4
 [FB]6 (AB) | [Ec]2 [Ec]2 [Ec]2 ([CE][DF]) | [EG]3 [DF] [CE]2 [EG]2 | [FA]2 [FA]2 (BA) (Bd) | %8
 [Ec]4- [Ec]GGG | [Ge]2 [Ec]2 [Fc]3 [FA] | [EG]6 [Ec]2 | [DB]3 [Ec] ([DB][CA]) ([EG][DF]) | %12
 [CE]4- [CE]GGG | [Ge]2 [Ec]2 [Fc]3 [FA] | [EG]6 [Ec]2 | [Fd]3 [Fc] [FB]2 (AB) | [Ec]6 |] %17
V:2
 x2 | x8 | x8 | x4 F2 F2 | x6 F2 | x8 | x8 | x4 F2 F2 | x5 GGG | x8 | x8 | x8 | x5 GGG | x8 | x8 | %15
 x6 F2 | x6 |] %17
V:3
 [C,C]2 | [C,G,]2 [C,G,]2 [C,G,]2 [C,G,]2 | [C,G,]3 [C,G,] [C,G,]2 [C,C]2 | %3
 [F,C]2 [F,C]2 (CB,) (CA,) | G,6 G,2 | [C,G,]2 [C,G,]2 [C,G,]2 [C,G,]2 | %6
 [C,G,]3 [C,G,] [C,G,]2 [C,C]2 | [F,C]2 [F,C]2 G,2 (DB,) | [C,C]4- [C,C]G,G,G, | %9
 [C,C]2 [C,G,]2 [F,A,]3 [F,C] | [C,C]6 [C,C]2 | G,3 G, G,2 [G,,G,]2 | [C,G,]4- [C,G,]G,G,G, | %13
 [C,C]2 [C,G,]2 [F,A,]3 [F,C] | [C,C]6 [C,G,]2 | [F,A,]3 [F,A,] G,2 G,2 | [C,G,]6 |] %17
V:4
 x2 | x8 | x8 | x4 F,2 F,2 | G,6 G,2 | x8 | x8 | x4 G,2 G,2 | x5 G,G,G, | x8 | x8 | G,3 G, G,2 x2 | %12
 x5 G,G,G, | x8 | x8 | x4 G,2 G,2 | x6 |] %17

